Newaita-dark/.DP/24/skype-status-connected-notification.svg

<svg xmlns="http://www.w3.org/2000/svg" xmlns:xlink="http://www.w3.org/1999/xlink" width="24px" height="24px" viewBox="0 0 24 24" version="1.1">
<g id="surface1">
<path style=" stroke:none;fill-rule:nonzero;fill:rgb(93.333334%,93.333334%,93.333334%);fill-opacity:1;" d="M 8.046875 3.148438 C 5.695312 3.148438 3.804688 5.042969 3.804688 7.390625 C 3.804688 8.101562 3.976562 8.773438 4.28125 9.359375 C 3.972656 10.214844 3.804688 11.140625 3.804688 12.105469 C 3.804688 16.546875 7.375 20.117188 11.816406 20.117188 C 12.164062 20.117188 12.5 20.097656 12.835938 20.054688 C 13.578125 20.683594 14.535156 21.0625 15.585938 21.0625 C 17.9375 21.0625 19.828125 19.171875 19.828125 16.820312 C 19.828125 16.109375 19.65625 15.4375 19.351562 14.851562 C 19.660156 13.996094 19.828125 13.070312 19.828125 12.105469 C 19.828125 10.800781 19.519531 9.570312 18.96875 8.484375 C 18.703125 8.574219 18.410156 8.621094 18.109375 8.621094 C 16.597656 8.621094 15.382812 7.40625 15.382812 5.890625 C 15.382812 5.578125 15.433594 5.277344 15.53125 5 C 14.421875 4.421875 13.15625 4.09375 11.816406 4.09375 C 11.46875 4.09375 11.128906 4.117188 10.796875 4.15625 C 10.054688 3.527344 9.09375 3.148438 8.046875 3.148438 Z M 13.890625 7.714844 L 14.882812 7.714844 C 14.890625 7.714844 14.898438 7.714844 14.910156 7.71875 C 14.917969 7.71875 14.925781 7.71875 14.933594 7.71875 C 14.9375 7.71875 14.9375 7.71875 14.9375 7.71875 C 14.945312 7.71875 14.953125 7.71875 14.957031 7.71875 C 14.960938 7.71875 14.960938 7.71875 14.960938 7.71875 C 14.96875 7.722656 14.976562 7.726562 14.984375 7.726562 C 14.992188 7.726562 15 7.726562 15.007812 7.730469 C 15.007812 7.730469 15.007812 7.734375 15.011719 7.734375 C 15.015625 7.734375 15.023438 7.734375 15.027344 7.734375 C 15.03125 7.734375 15.03125 7.738281 15.035156 7.738281 C 15.039062 7.742188 15.046875 7.742188 15.054688 7.746094 C 15.070312 7.75 15.085938 7.757812 15.101562 7.765625 C 15.109375 7.765625 15.113281 7.773438 15.121094 7.773438 C 15.128906 7.78125 15.132812 7.78125 15.140625 7.789062 C 15.148438 7.789062 15.15625 7.796875 15.164062 7.804688 C 15.167969 7.804688 15.171875 7.804688 15.171875 7.804688 C 15.175781 7.8125 15.179688 7.8125 15.1875 7.820312 C 15.1875 7.820312 15.191406 7.820312 15.195312 7.824219 C 15.199219 7.828125 15.203125 7.832031 15.210938 7.835938 C 15.210938 7.835938 15.210938 7.839844 15.214844 7.84375 C 15.222656 7.847656 15.226562 7.851562 15.234375 7.859375 C 15.242188 7.867188 15.246094 7.871094 15.25 7.875 C 15.257812 7.882812 15.261719 7.890625 15.265625 7.898438 C 15.273438 7.902344 15.277344 7.90625 15.28125 7.914062 C 15.289062 7.929688 15.300781 7.9375 15.308594 7.953125 C 15.3125 7.960938 15.316406 7.96875 15.320312 7.976562 C 15.320312 7.976562 15.320312 7.980469 15.324219 7.984375 C 15.328125 7.992188 15.335938 8 15.335938 8.007812 C 15.335938 8.011719 15.335938 8.011719 15.335938 8.011719 C 15.339844 8.015625 15.339844 8.015625 15.34375 8.015625 C 15.34375 8.023438 15.347656 8.03125 15.351562 8.039062 C 15.355469 8.054688 15.359375 8.070312 15.367188 8.085938 C 15.367188 8.09375 15.367188 8.101562 15.371094 8.109375 C 15.371094 8.117188 15.375 8.125 15.375 8.136719 C 15.375 8.144531 15.375 8.152344 15.375 8.160156 C 15.378906 8.164062 15.378906 8.164062 15.378906 8.164062 C 15.378906 8.171875 15.378906 8.179688 15.378906 8.1875 C 15.382812 8.195312 15.382812 8.203125 15.382812 8.210938 L 15.382812 9.203125 C 15.382812 9.476562 15.15625 9.699219 14.882812 9.699219 L 14.390625 9.699219 C 14.113281 9.699219 13.890625 9.476562 13.890625 9.203125 L 10.421875 9.203125 C 10.144531 9.203125 9.921875 9.425781 9.921875 9.699219 L 9.921875 10.691406 C 9.921875 10.96875 10.144531 11.1875 10.421875 11.1875 L 14.882812 11.1875 C 15.15625 11.1875 15.382812 11.410156 15.382812 11.683594 L 15.382812 15.65625 C 15.382812 15.929688 15.15625 16.148438 14.882812 16.148438 L 8.929688 16.148438 C 8.914062 16.148438 8.898438 16.148438 8.878906 16.148438 C 8.871094 16.148438 8.863281 16.144531 8.855469 16.144531 C 8.84375 16.140625 8.835938 16.140625 8.828125 16.140625 C 8.824219 16.140625 8.820312 16.140625 8.820312 16.136719 C 8.8125 16.132812 8.804688 16.132812 8.796875 16.132812 C 8.796875 16.132812 8.792969 16.132812 8.789062 16.128906 C 8.78125 16.125 8.777344 16.125 8.773438 16.125 C 8.765625 16.125 8.765625 16.121094 8.765625 16.121094 C 8.753906 16.117188 8.746094 16.117188 8.734375 16.109375 C 8.730469 16.109375 8.722656 16.105469 8.714844 16.101562 C 8.695312 16.089844 8.671875 16.078125 8.652344 16.0625 C 8.644531 16.0625 8.640625 16.054688 8.632812 16.046875 C 8.628906 16.046875 8.625 16.046875 8.625 16.046875 C 8.617188 16.039062 8.613281 16.039062 8.609375 16.03125 C 8.609375 16.03125 8.601562 16.027344 8.601562 16.023438 C 8.597656 16.023438 8.59375 16.015625 8.585938 16.015625 C 8.585938 16.011719 8.585938 16.007812 8.582031 16.007812 C 8.578125 16 8.570312 15.992188 8.5625 15.988281 C 8.546875 15.96875 8.53125 15.953125 8.519531 15.929688 C 8.515625 15.925781 8.507812 15.917969 8.507812 15.914062 C 8.5 15.898438 8.492188 15.882812 8.484375 15.867188 C 8.480469 15.859375 8.476562 15.855469 8.476562 15.851562 C 8.472656 15.847656 8.472656 15.84375 8.46875 15.84375 C 8.46875 15.835938 8.46875 15.835938 8.46875 15.828125 C 8.464844 15.828125 8.464844 15.824219 8.460938 15.820312 C 8.460938 15.8125 8.460938 15.808594 8.457031 15.800781 C 8.453125 15.792969 8.453125 15.789062 8.453125 15.78125 C 8.449219 15.777344 8.449219 15.773438 8.449219 15.773438 C 8.445312 15.769531 8.445312 15.765625 8.445312 15.757812 C 8.445312 15.757812 8.445312 15.753906 8.445312 15.75 C 8.445312 15.742188 8.441406 15.738281 8.4375 15.730469 C 8.4375 15.726562 8.4375 15.726562 8.4375 15.726562 C 8.4375 15.722656 8.4375 15.714844 8.4375 15.707031 C 8.4375 15.703125 8.4375 15.703125 8.4375 15.699219 C 8.4375 15.695312 8.4375 15.6875 8.4375 15.683594 C 8.4375 15.679688 8.4375 15.679688 8.4375 15.679688 C 8.4375 15.671875 8.433594 15.664062 8.433594 15.65625 L 8.433594 14.664062 C 8.433594 14.386719 8.65625 14.164062 8.929688 14.164062 L 9.425781 14.164062 C 9.703125 14.164062 9.921875 14.386719 9.921875 14.664062 L 13.398438 14.664062 C 13.671875 14.664062 13.890625 14.4375 13.890625 14.164062 L 13.890625 13.171875 C 13.890625 12.898438 13.671875 12.679688 13.398438 12.679688 L 8.929688 12.679688 C 8.65625 12.679688 8.433594 12.453125 8.433594 12.179688 L 8.433594 8.210938 C 8.433594 7.9375 8.65625 7.714844 8.929688 7.714844 Z M 13.890625 7.714844 "/>
<path style=" stroke:none;fill-rule:nonzero;fill:rgb(93.333334%,93.333334%,93.333334%);fill-opacity:1;" d="M 18.109375 4.15625 C 19.070312 4.15625 19.84375 4.933594 19.84375 5.890625 C 19.84375 6.851562 19.070312 7.628906 18.109375 7.628906 C 17.148438 7.628906 16.375 6.851562 16.375 5.890625 C 16.375 4.933594 17.148438 4.15625 18.109375 4.15625 Z M 18.109375 4.15625 "/>
</g>
</svg>

<svg xmlns="http://www.w3.org/2000/svg" width="32" height="32" viewBox="0 0 24 24"><g fill="#bdbdbd"><path d="M8.043 3.148a4.236 4.236 0 0 0-4.242 4.243c0 .71.176 1.382.48 1.968a8.084 8.084 0 0 0-.48 2.746 7.997 7.997 0 0 0 9.035 7.95 4.234 4.234 0 0 0 2.75 1.008 4.231 4.231 0 0 0 4.242-4.243c0-.71-.172-1.379-.48-1.968a7.99 7.99 0 0 0 .48-2.747 8.029 8.029 0 0 0-.855-3.62c-.274.09-.563.136-.864.136a2.722 2.722 0 0 1-2.578-3.625 8.019 8.019 0 0 0-3.715-.902c-.347 0-.687.02-1.023.062a4.218 4.218 0 0 0-2.75-1.008zm5.848 4.567h1.019c.008 0 .016.004.024.004h.023c0 .004.004.004.004.004a.05.05 0 0 1 .023.004l.024.003h.004c.008.004.011.004.015.008h.008l.02.008a.239.239 0 0 1 .047.02c.003.004.011.004.02.007.007.004.015.008.019.012a.082.082 0 0 0 .023.016c.004.004.004.004.008.004l.015.011.008.008c.004.004.008.008.016.012 0 .004.004.004.004.004l.02.02a.069.069 0 0 1 .015.019c.008.004.012.012.016.016a.069.069 0 0 1 .015.02c.012.01.02.026.028.038l.011.024.004.003v.004a.224.224 0 0 0 .016.028v.008c.004.007.008.011.012.02l.011.046c.004.008.004.016.008.023 0 .012.004.02.004.028s.004.015.004.023v1.043a.492.492 0 0 1-.496.496h-.496a.494.494 0 0 1-.496-.496h-3.473a.497.497 0 0 0-.496.496v.992c0 .278.223.496.496.496h4.465c.277 0 .496.223.496.497v3.968a.492.492 0 0 1-.496.496H8.879c-.008-.003-.016-.003-.024-.003-.011 0-.02-.004-.027-.004-.004-.004-.008-.004-.008-.004-.008 0-.015-.004-.02-.004-.003 0-.007-.004-.01-.004-.005 0-.013-.004-.02-.004 0-.004-.004-.004-.008-.004l-.024-.012a.056.056 0 0 1-.023-.007c-.024-.012-.043-.024-.063-.036-.007-.007-.015-.011-.023-.015 0-.004-.004-.004-.004-.008a.054.054 0 0 1-.016-.012c-.004 0-.004-.004-.007-.004l-.012-.015c-.004 0-.008-.004-.008-.004l-.02-.02c-.015-.02-.03-.035-.042-.058-.004-.004-.008-.012-.012-.02a.104.104 0 0 1-.024-.039v-.004c-.004-.004-.007-.012-.011-.015v-.008c-.004-.004-.004-.012-.008-.016v-.008a.03.03 0 0 1-.008-.02c-.004-.007-.004-.015-.008-.019v-.008c0-.003-.004-.011-.004-.015v-.008c-.004-.004-.004-.012-.004-.02-.004-.007-.004-.015-.004-.023v-.008c0-.004 0-.011-.003-.015v-.008-1.016c0-.273.222-.496.496-.496h.496c.277 0 .496.223.496.496h3.473a.492.492 0 0 0 .496-.496v-.992a.494.494 0 0 0-.496-.496H8.93a.494.494 0 0 1-.496-.496V8.21c0-.273.222-.495.496-.495zm0 0"/><path d="M18.11 4.156a1.736 1.736 0 1 1-.004 3.473 1.736 1.736 0 0 1 .003-3.473zm0 0"/></g></svg>
